!!!COM: Palestrina, Giovanni Perluigi da
!!!OPR: Missa Veni Sancte Spiritus
!!!OTL: Kyrie
**kern	**kern	**kern	**kern	**kern
*Ibass	*Itenor	*Itenor	*Icalto	*Icant
!Bassus	!Tenor 2	!Tenor 1	!Altus	!Cantus
*clefF4	*clefGv2	*clefGv2	*clefG2	*clefG2
*k[b-]	*k[b-]	*k[b-]	*k[b-]	*k[b-]
*G:dor	*G:dor	*G:dor	*G:dor	*G:dor
*M4/2	*M4/2	*M4/2	*M4/2	*M4/2
=1	=1	=1	=1	=1
0r	0r	0r	1r	0dd
.	.	.	[1g	.
=2	=2	=2	=2	=2
0r	0r	0r	1g]	1ee
.	.	.	1a	2.ff
.	.	.	.	4ee
=3	=3	=3	=3	=3
0r	0r	0r	1b-	4dd
.	.	.	.	4cc
.	.	.	.	2dd
.	.	.	2b-	2g
.	.	.	[2a	[2cc
=4	=4	=4	=4	=4
0r	1r	0r	4a]	4cc]
.	.	.	4g	4b
.	.	.	1g	4b
.	.	.	.	8a
.	.	.	.	8g
.	[1d	.	.	1a
.	.	.	2f#	.
=5	=5	=5	=5	=5
0G	1d]	0r	4g	0g
.	.	.	4a	.
.	.	.	4b-	.
.	.	.	4a	.
.	1e	.	4g	.
.	.	.	4f	.
.	.	.	4e	.
.	.	.	4d	.
=6	=6	=6	=6	=6
1A	2.f	0r	1c	0r
.	4e	.	.	.
1B-	4d	.	2.f	.
.	4c	.	.	.
.	2d	.	.	.
.	.	.	4e	.
=7	=7	=7	=7	=7
2B-	2G	0r	2d	1r
2.A	2.c	.	2c	.
.	.	.	1d	2r
4G	4B-	.	.	.
[2G	2B-	.	.	2g
=8	=8	=8	=8	=8
2G]	1A	0d	1r	1a
2F#	.	.	.	.
1G	2r	.	[1g	1b
.	[2G	.	.	.
=9	=9	=9	=9	=9
1C	2G]	1e	1g]	2cc
.	2c	.	.	2.cc
1F	2A	1f	[1a	.
.	.	.	.	4b-
.	[2d	.	.	4a
.	.	.	.	4g
=10	=10	=10	=10	=10
2D	4d]	2f	2a]	2f
.	4c	.	.	.
1G	4B-	2.e-	1b-	2g
.	4A	.	.	.
.	2G	.	.	1dd
.	.	4d	.	.
2F#	2A	[2d	[2a	.
=11	=11	=11	=11	=11
2G	2B-	2d]	4a]	1r
.	.	.	4g	.
2E-	2G	2c	1g	.
1D	1A	1d	.	[1dd
.	.	.	2f#	.
=12	=12	=12	=12	=12
1G	1B	2r	0g	1dd]
.	.	1G	.	.
2C	[1c	.	.	1ee
2C	.	2G	.	.
=13	=13	=13	=13	=13
1F	1c]	1A	1r	2.ff
.	.	.	.	4ee
1BB-	2r	2.B-	1f	4dd
.	.	.	.	4cc
.	[2B-	.	.	[2dd
.	.	4c	.	.
=14	=14	=14	=14	=14
0r	2B-]	2d	2g	2dd]
.	2c	2e	1a	4cc
.	.	.	.	4b-
.	[1d	1f	.	4a
.	.	.	.	4g
.	.	.	2b-	4f
.	.	.	.	4e
=15	=15	=15	=15	=15
0r	2d]	0r	2a	2f
.	2e-	.	1g	2g
.	1d	.	.	1a
.	.	.	2f#	.
=16	=16	=16	=16	=16
1r	1G	2r	2.g	2b-
.	.	1B-	.	1dd
.	.	.	4a	.
2r	1r	.	2b-	.
[2F	.	2c	4a	[2cc
.	.	.	4g	.
=17	=17	=17	=17	=17
2F]	1r	2.d	4f	2cc]
.	.	.	4e	.
2G	.	.	2d	2b-
.	.	4e	.	.
[1A	2r	2f	1c	[1a
.	[2c	4e	.	.
.	.	4d	.	.
=18	=18	=18	=18	=18
2A]	2c]	4e	0r	2a]
.	.	4f	.	.
2B-	2d	2d	.	2g
[1A	2e	2c#	.	[1a
.	2f	[2d	.	.
=19	=19	=19	=19	=19
1A]	2.e	2d]	0r	1a]
.	.	2c#	.	.
.	4f	.	.	.
2.G	1g	[1d	.	2r
.	.	.	.	[2b-
4A	.	.	.	.
=20	=20	=20	=20	=20
2B-	2.f	2d]	2r	2b-]
2A	.	2c	1f	2cc
.	4e	.	.	.
1B-	1d	2r	.	1dd
.	.	2B-	[2g	.
=21	=21	=21	=21	=21
0r	1r	1c	2g]	1ee-
.	.	.	1a	.
.	[1f	[1d	.	[1dd
.	.	.	2b-	.
=22	=22	=22	=22	=22
0r	2f]	2d]	2a	2dd]
.	2g	2e-	1g	2cc
.	2a	2.d	.	[1dd
.	2d	.	2f	.
.	.	4c	.	.
=23	=23	=23	=23	=23
2r	2.f	4B-	2.d	1dd]
.	.	4A	.	.
1BB-	.	2.B-	.	.
.	4e-	.	4e-	.
.	2d	.	2f	1r
.	.	4A	.	.
2C	4c	[2G	2e-	.
.	4B-	.	.	.
=24	=24	=24	=24	=24
1D	1A	2G]	2.d	1r
.	.	2F#	.	.
.	.	.	4c	.
[1E-	[1G	2G	4B-	[1b-
.	.	.	4A	.
.	.	[2B-	2G	.
=25	=25	=25	=25	=25
1E-]	1G]	2B-]	1g	2b-]
.	.	4A	.	2cc
.	.	4G	.	.
1D	1d	2A	2f	1dd
.	.	2B-	2d	.
=26	=26	=26	=26	=26
1C	2r	2.c	1g	1ee-
.	2A	.	.	.
.	.	4B-	.	.
[1D	2d	2A	2f#	[1dd
.	2d	2G	[2g	.
=27	=27	=27	=27	=27
1D]	1d	1A	2g]	1dd]
.	.	.	2f#	.
[1G	[1d	[1G	[1g	[1b
=28	=28	=28	=28	=28
0G]	0d]	0G]	0g]	0b]
=29	=29	=29	=29	=29
0r	1c	0r	0r	0r
.	1d	.	.	.
=30	=30	=30	=30	=30
0r	2.f	1F	0r	0r
.	4e-	.	.	.
.	4d	1G	.	.
.	4c	.	.	.
.	4B-	.	.	.
.	4c	.	.	.
=31	=31	=31	=31	=31
0r	4d	1.B-	0r	1f
.	4e	.	.	.
.	1f	.	.	.
.	.	.	.	1g
.	2e	2c	.	.
=32	=32	=32	=32	=32
0r	1f	2d	0r	1.b-
.	.	2B-	.	.
.	2g	1e-	.	.
.	2c	.	.	2cc
=33	=33	=33	=33	=33
0r	2d	1d	1f	2b-
.	2f	.	.	2.a
.	2e-	2c	1g	.
.	.	.	.	4g
.	2d	2B-	.	[2g
=34	=34	=34	=34	=34
0r	1c	1A	2a	2g]
.	.	.	1cc	2f#
.	2.d	1G	.	1g
.	.	.	2b-	.
.	4e	.	.	.
=35	=35	=35	=35	=35
1F	1f	0r	1a	1cc
1G	[1d	.	2g	2b-
.	.	.	[2b-	[2dd
=36	=36	=36	=36	=36
1.B-	1d]	1r	4b-]	4dd]
.	.	.	4a	4ee
.	.	.	2f	1ff
.	1r	2r	1g	.
2c	.	2c	.	2ee-
=37	=37	=37	=37	=37
2B-	2r	2d	1r	2dd
2A	2c	2e	.	1cc
1G	1d	1g	2r	.
.	.	.	2g	2b-
=38	=38	=38	=38	=38
1F	1.f	1c	2a	2cc
.	.	.	1cc	2a
2r	.	1r	.	1dd
2G	2g	.	2b-	.
=39	=39	=39	=39	=39
2A	2f	1c	2a	0r
1c	1e	.	4g	.
.	.	.	4f	.
.	.	1d	1g	.
2B-	[2d	.	.	.
=40	=40	=40	=40	=40
1A	2d]	1e	1.a	0r
.	2c#	.	.	.
2.D	2d	2f	.	.
.	[2f	[2d	2b-	.
4E	.	.	.	.
=41	=41	=41	=41	=41
2F	2f]	4d]	2a	1cc
.	.	4c	.	.
2C	2e	1c	2g	.
1G	1d	.	1g	1dd
.	.	2B	.	.
=42	=42	=42	=42	=42
1F	2r	1c	2.a	1.ff
.	2c	.	.	.
.	.	.	4g	.
1r	2d	2r	2f	.
.	2e	2c	2e	2gg
=43	=43	=43	=43	=43
1r	2f	2d	2d	2ff
.	2g	2e	2c	2.ee
2r	2d	2f	2B-	.
.	.	.	.	4dd
2F	2f	2a	2A	[2dd
=44	=44	=44	=44	=44
2G	1e	2g	0r	2dd]
2A	.	2e	.	2cc#
2.B-	1d	2g	.	2.dd
.	.	2f	.	.
4A	.	.	.	4cc
=45	=45	=45	=45	=45
4B-	1r	2d	1f	2b-
4c	.	.	.	.
2d	.	1f	.	2a
1c	2r	.	1g	1cc
.	2c	2e	.	.
=46	=46	=46	=46	=46
1.B-	1d	2.f	1.b-	0r
.	.	4e	.	.
.	[1f	2d	.	.
2A	.	2c	2cc	.
=47	=47	=47	=47	=47
2B-	2f]	2d	2b-	1r
2c	2e-	2c	2.a	.
2G	1d	2B-	.	2r
.	.	.	4g	.
2B-	.	2G	[2g	2g
=48	=48	=48	=48	=48
1A	1c	2r	2g]	2a
.	.	2c	2f#	1cc
1G	1r	1d	1g	.
.	.	.	.	2b-
=49	=49	=49	=49	=49
1r	0r	1f	2d	1a
.	.	.	1f	.
1C	.	1g	.	2.cc
.	.	.	2e	.
.	.	.	.	4b-
=50	=50	=50	=50	=50
1D	1r	2f	4f	1a
.	.	.	4g	.
.	.	4F	4a	.
.	.	4G	4b-	.
[1F	1c	4A	1a	1f
.	.	4B-	.	.
.	.	[2c	.	.
=51	=51	=51	=51	=51
2F]	1d	2c]	2r	1r
2G	.	2B-	2g	.
2F	2f	2A	2a	1cc
2E-	[2g	2G	2cc	.
=52	=52	=52	=52	=52
0D	2g]	1d	2b-	1dd
.	2f	.	4a	.
.	.	.	4g	.
.	2d	1A	1a	[1ff
.	[2f	.	.	.
=53	=53	=53	=53	=53
2.BB-	4f]	1B-	1d	2ff]
.	4e	.	.	.
.	1d	.	.	2gg
4C	.	.	.	.
2D	.	[1A	[1a	2ff
2C#	2e	.	.	[2ee
=54	=54	=54	=54	=54
1D	1f	0A]	1a]	4ee]
.	.	.	.	4dd
.	.	.	.	1dd
1AA	1e	.	1a	.
.	.	.	.	2cc#
=55	=55	=55	=55	=55
0D	0d	0A	0f#	0dd
=56	=56	=56	=56	=56
0G	0r	0r	0r	0r
=57	=57	=57	=57	=57
1A	0r	1r	0r	0r
2.B-	.	[1d	.	.
4A	.	.	.	.
=58	=58	=58	=58	=58
2G	0r	1d]	0r	0r
2F	.	.	.	.
2G	.	1e	.	.
2A	.	.	.	.
=59	=59	=59	=59	=59
1D	0r	2.f	1r	0dd
.	.	4e	.	.
1G	.	4d	[1g	.
.	.	4c	.	.
.	.	2B-	.	.
=60	=60	=60	=60	=60
1C	0r	1.c	1g]	1ee
1F	.	.	1a	2.ff
.	.	2d	.	.
.	.	.	.	4ee
=61	=61	=61	=61	=61
2.G	0d	2.B-	2.b-	4dd
.	.	.	.	4cc
.	.	.	.	1b-
4A	.	4c	4a	.
4B-	.	1d	2g	.
4c	.	.	.	.
[2d	.	.	2f	2a
=62	=62	=62	=62	=62
2d]	1e	1A	1e	0a
2c#	.	.	.	.
2.d	2.f	1r	2d	.
.	.	.	[2f	.
4c	4e	.	.	.
=63	=63	=63	=63	=63
2B	2d	0r	2f]	0g
2c	1c	.	2e	.
1G	.	.	1d	.
.	2B	.	.	.
=64	=64	=64	=64	=64
0r	2c	1r	2e	1a
.	2d	.	2f	.
.	2.G	[1d	[1g	2.b-
.	4F	.	.	4a
=65	=65	=65	=65	=65
0r	4G	1d]	1g]	4b-
.	4A	.	.	4cc
.	2B-	.	.	1dd
.	1A	1e	[1a	.
.	.	.	.	[2cc
=66	=66	=66	=66	=66
2r	2r	2.f	1a]	4cc]
.	.	.	.	4b-
1F	1a	.	.	4a
.	.	4e	.	4g
.	.	1d	1r	2f
2G	4g	.	.	2b-
.	4f	.	.	.
=67	=67	=67	=67	=67
2A	2e	2c#	0r	2a
2B-	2d	2d	.	2g
2A	2c#	2e	.	2a
2G	[2d	2g	.	2b-
=68	=68	=68	=68	=68
1A	2d]	2f	0r	0a
.	2c#	2e	.	.
1D	1d	1f	.	.
=69	=69	=69	=69	=69
0r	2.B-	1d	1.f	2r
.	.	.	.	1b-
.	4c	.	.	.
.	2d	1r	.	.
.	2e-	.	2g	2cc
=70	=70	=70	=70	=70
0r	2d	0r	1a	2dd
.	2c	.	.	2ee-
.	2d	.	2b-	2dd
.	[2f	.	[2a	2cc
=71	=71	=71	=71	=71
1r	2f]	0r	2a]	2dd
.	2g	.	1g	2b-
1D	[1d	.	.	1a
.	.	.	2f#	.
=72	=72	=72	=72	=72
2.G	1d]	2r	1g	0g
.	.	1B-	.	.
4F	.	.	.	.
1E-	2.G	.	1r	.
.	.	2c	.	.
.	4A	.	.	.
=73	=73	=73	=73	=73
2D	2B-	2d	1r	0r
2C	2c	2e-	.	.
2D	2B-	2d	[1f	.
2F	2A	2c	.	.
=74	=74	=74	=74	=74
2BB-	2B-	2.d	2f]	0r
2B-	2d	.	2g	.
.	.	4e	.	.
2A	2c	2f	2a	.
2G	2d	2g	2b-	.
=75	=75	=75	=75	=75
2F	2f	1c	2a	1.cc
2C	2e	.	2g	.
1F	1f	2r	1a	.
.	.	2f	.	2dd
=76	=76	=76	=76	=76
0r	2r	2g	2b-	2ee
.	1F	1a	1cc	1ff
.	2G	4g	2b-	4ee
.	.	4f	.	4dd
=77	=77	=77	=77	=77
0r	2A	2e	2a	2cc#
.	2B-	2d	2g	1dd
.	1A	1e	2.a	.
.	.	.	.	2cc#
.	.	.	4g	.
=78	=78	=78	=78	=78
1.BB-	1.d	1f	2.f	2dd
.	.	.	.	1ff
.	.	.	4e-	.
.	.	[1F	2d	.
2C	2e-	.	4c	2ee-
.	.	.	4B-	.
=79	=79	=79	=79	=79
2D	4f	2F]	2A	2dd
.	4d	.	.	.
2E-	2g	2G	2G	2cc
[1D	2.f	2A	2.d	[1dd
.	.	2B-	.	.
.	4e	.	4e	.
=80	=80	=80	=80	=80
0D]	0d	2A	2f#	2dd]
.	.	2G	1g	4cc
.	.	.	.	4b-
.	.	1A	.	1a
.	.	.	2f#	.
=81	=81	=81	=81	=81
[0G	[0d	[0G	[0g	[0b
=82	=82	=82	=82	=82
0G]	0d]	0G]	0g]	0b]
==	==	==	==	==
*-	*-	*-	*-	*-
!!!CDT: 1525/^1526/-1594/2/2
!!!OCY: Italia
!!!AGN: Mass (Parody)
!!!AST: renaissance, vocal
!!!ASW: Motet (unidentified (Pal?))
!!!PWK: Masses, Book 4
!!!RNB: Cadence finals: D
!!!YOR: Le Opere Complete, v. 10, p. 115
!!!YOO: Rome, Italy: Fratelli Scalera
!!!END: 1992//
!!!EED: John Miller
!!!YEC: Copyright 2000, John Miller
!!!YEN: United States of America
!!!YEM: Rights to all derivative electronic formats reserved.
!!!YEM: Refer to licensing agreement for further details.
!!!YEM: This file must be accompanied by the licensing agreement.
!!!YEM: A copy of the licensing agreement may be found at http://www.music-cog.ohio-state.edu/HumdrumDatabases/Palestrina/license.txt
!!!EMD: converted to Humdrum by Bret Aarden
